X:1
T:Title
%%score { ( 1 2 ) | ( 3 4 ) }
L:1/8
Q:1/4=106
M:3/4
K:Db
V:1 treble nm="Grand Piano"
V:2 treble 
V:3 bass 
V:4 bass 
V:1
 A4 z2 | E2 z2 z2 | A2 F2 D2 | E2 D2 z2 | z2 G2 B2 | d2 B2 G2 | F2 A2 F2 | E6 | A2 B2 c2 | %9
w: J.~Howard~Entwisle|||||||||
 c2 B2 A2 | e2 c2 e2 | e2 d2 z2 | d2 =A2 d2 | d2 A2 d2 | [=Gd]4 .[E_Gc]2 | [Fd]6 |] %16
w: |||||||
V:2
 [A,F]2 E2 A2 | A2- [F,DA]2 [CA]2 | x6 | x6 | D4 z2 | x6 | x6 | x6 | x6 | x6 | x6 | x6 | x6 | x6 | %14
 x6 | x6 |] %16
V:3
 z2 G,2 [D,F,D]2 | G,2 z2 [A,,E,]2 | [D,D]2- [D,A,D]2 [D,F,A,]2 | [D,G,A,]2 [D,F,A,]2 z2 | %4
 [G,B,]4 [G,D]2 | [G,G]2- [G,DG]2 [B,D]2 | A,2 z2 z2 | [A,C]6 | [A,G]2- [A,DG]2 [A,EG]2 | %9
 E2 D2 [A,CG]2 | [A,G]2- [A,EG]2 [A,CG]2 | [B,F]2 [B,F]2 z2 | [=A,D_F]4 [A,DF]2 | %13
 [A,DF]4[K:bass] A,2 | B,2 z2 z2 | [D,A,]6 |] %16
V:4
 D,4 z2 | A,,4 z2 | F,2 z2 z2 | x6 | x6 | B,2 z2 z2 | [D,D]2- [D,F,D]2 [D,A,D]2 | x6 | B,2 z2 z2 | %9
 [A,G]4 z2 | C2 z2 z2 | x6 | x6 | x4[K:bass] x2 | E,2- [E,E]2 A,A, | x6 |] %16

